X:1
T:Dolce mia vita
T:Luca Marenzio
T:Source : Il secondo Libro delle canzonette alla Napolitana a tre voci---Venetia---G.Visconti---1587. Editor : André Vierendeels (02/05/17).
T:Notes : Original clefs : G2, C1, F3 Editorial accidentals above the staff " Seconda impressione" Music collected by Attilio Gualtieri
T:Dolce mia vita
T:©
T:©
C:Luca Marenzio
Z:©
%%score [ 1 2 3 ]
L:1/8
Q:1/4=120
M:4/4
K:C
V:1 treble nm="Soprano 1" snm="S 1"
V:2 treble nm="Soprano 2" snm="S 2"
V:3 bass nm="Bass" snm="B"
V:1
"^1)" d8 | d4 d4 | e8 | d2 d4 e2 | f4 e4 | d8 |[M:2/4] c4 ::[M:4/4] e4 d4 | c4 B4 | A4 f2 ed | %10
w: Dol-|ce mia|vi-|ta'è'a- ma- ra|mor- te|mi-|a,|che l'un'|è l'al-|tra, che l'un' è|
w: Oc-|chi che|se-|re- nar fat-|te le|stel-|le,|con vo-|stra lu-|ce'An- ge- li- ca,|
 e2 c2 d2 B2 | c2 A2 B2 G2 | g2 fe f2 d2 | e2 c2 g2 g2 | e4 d4- | d4 z4 | e8 | d3 d d2 c2 | B4 B4 | %19
w: l'al- tra'in voi ri-|po- se'A- mo- re,|che l'un' è l'al- tra'in|voi ri- po- se'A-|mo- re,|_|deh|ven- ga- vi pie-|tà d'un|
w: con vo- stra lu-|ce'An- ge- li- ca,|con vo- stra lu- ce'An-|ge- li- ca se-|re- na,|_|deh|ven- ga- vi pie-|tà de|
 c8 | B4 A4- | A4 !fermata!G4 :| %22
w: che|si mo-|* re.|
w: la|mia pe-|* na.|
V:2
"^2)""^1)" z4 G4 | A4 B4 | c8 | B2 B4 ^c2 | d4 G2 c2- | c2 BA B4 |[M:2/4] c4 ::[M:4/4] G4 B4 | %8
w: Dol-|ce mia|vi-|ta'è'a- ma- ra|mor- te mi-||a,|che l'un'|
w: Pa-|ro- let-|te|so- a- vi'et|a- mo- ro-||se,|che po-|
 A4 G4 | F4 A2 GF | G2 F2 D2 D2 | E2 ^F2 G2 D2 | B2 AG A2 B2 | c2 e2 d2 d2 | ^c4 d4- | d4 z4 | c8 | %17
w: è l'al-|tra, che l'un' è|l'al- tra'in voi ri-|po- se'A- mo- re,|che l'un' è l'al- tra'in|voi ri- po- se'A-|mo- re,|_|deh|
w: te- te'ac-|que- tar, che po-|te- te'ac- que- tar,|che po- te- te,|che po- te- te'ac- que-|tar tem- pe- st'e|ven- ti;|_|deh|
 B3 B B2 A2 | ^G8 | ^G4 A4 | G8 | ^F4 !fermata!G4 :| %22
w: ven- ga- vi pie-|tà|d'un che|si|mo- re.|
w: ven- ga- vi pie-|tà|de miei|tor-|men- ti.|
V:3
"^1)""^4)""^3)" G,8 | ^F,4 G,4 | C,8 | G,2 G,4 F,2 | D,4 C,4 | G,8 |[M:2/4] C,4 :: %7
w: Dol-|ce mia|vi-|ta'è'a- ma- ra|mor- te,|mi-|a,|
w: Ahi-|me ch'io|spar-|go'in van pian-|ti'e so-|spi-|ri,|
[M:4/4] C2 B,A, B,2 G,2 | A,2 F,2 G,2 E,2 | F,2 D,2 D4 | C4 B,4 | A,4 G,4 | E,4 D,4 | A,4 _B,4 | %14
w: che l'un' è l'al- tra'in|voi ri- po- se'A-|mo- re, che|l'un è|l'al- tra'in|voi ri-|po- se'A-|
w: per- che con- tra d'un|co- re di Dia-|man- te, per-|che con-|tra d'un|co- re|di Dia-|
 A,4 D,4- | D,4 z4 | C,8 | G,3 G, G,2 A,2 | E,8 | E,4 F,4 | G,4 D,4- | D,4 !fermata!G,4 :| %22
w: mo- re,|_|deh|ven- ga- vi pie-|tà|d'un che|si mo-|* re.|
w: man- te,|_|che|ci puo far un|mes-|chi- nel-|lo'A- man-|* te.|

